X: 38
T:Pipe on the Hob No. 1 [D], The
M:6/8
L:1/8
R:Double Jig
K:D
A[|:ded ABG|F2D DED|EDE =cBc|E2D DFA|!
d=cB cBA|BAG A2G|EDE =cBc|1E2D D2A:|2E2D D2e|]!
f2d dcd|fad dcd|edB =c2d|ede a2g|!
f2d dcd|fad dcd|ede age|edc d2e||!
f2d dcd|fad dcd|edB =c2d|ede a2g|!
fdf geg|afa gfe|fed eag|edc d2A|]!
